X:1
T:If I Had Maggie in the Wood  "137 bpm"
M:C|
L:1/8
Q:80
C:arr. Kent Hiestand
S:Polka
K:HP
c/2B/2 | \
{g}A{d}A{e}AB | \
{g}cf{e}fa/2f/2 |
{g}ec{G}c/2B/2A/2B/2 | \
{g}cB{G}Bc/2B/2 | \
{g}A{d}A{e}AB |
{g}cf{e}fa/2f/2 | \
{g}ec{d}Bc/2B/2 | \
{AGAG}A2{d}A ::
f/2g/2 | \
{ag}agfe | \
{g}fg{ag}a3/2f/2 |
{g}ec{G}c/2B/2A/2B/2|1
{g}cB{G}Bf/2g/2|1
{ag}ag{g}fe |
{g}fg{ag}a3/2f/2 | \
{g}ec{d}Bc/2B/2 | \
{AGAG}A2{d}A:|2
{g}cB{d}Bc/2B/2 | \
{g}A{d}A{e}AB | \
{g}cf{e}fa/2f/2 |
{g}ec{d}Bc/2B/2 | \
{AGAG}A2{d}A :|
